X:19163
T:Y'a cor 10 filles à Questembert - Tour
C:Grandjean/Lemou
M:4/4
L:1/8
K:G
d2dd c3B|A2c2 B2B2|d2dd c3B|A2c2 B4|\
d2dd c3B|A2c2 B2B2|d2de c3B|ABcd B3B||
c2d2e2e2|dedc B4|dedc B4|ABcd B2B2\
|:A2B2 c4|BABc Be ec|A2B2 c4|ABAG A4:|


